icons/harbour-foilauth.svg

<?xml version="1.0" encoding="UTF-8" standalone="no"?>
<svg
   xmlns:svg="http://www.w3.org/2000/svg"
   xmlns="http://www.w3.org/2000/svg"
   xmlns:sodipodi="http://sodipodi.sourceforge.net/DTD/sodipodi-0.dtd"
   xmlns:inkscape="http://www.inkscape.org/namespaces/inkscape"
   version="1.1"
   x="0px"
   y="0px"
   width="86px"
   height="86px"
   viewBox="0 0 86 86"
   style="enable-background:new 0 0 86 86;"
   xml:space="preserve"
   sodipodi:docname="harbour-foilauth.svg"
   inkscape:version="0.92.4 (unknown)">
  <g>
    <rect
        style="opacity:0;fill:#FFFFFF;"
        width="86"
        height="86"/>
    <linearGradient
        id="SVGID_1_"
        gradientUnits="userSpaceOnUse"
        x1="12.8064"
        y1="73.1937"
        x2="73.1934"
        y2="12.8067">
      <stop
          offset="0"
          style="stop-color:#e65100;stop-opacity:1"/>
      <stop
          offset="1"
          style="stop-color:#f57c00;stop-opacity:1"/>
    </linearGradient>
    <circle
        style="fill:url(#SVGID_1_);"
        cx="43"
        cy="43"
        r="42.7"/>
    <circle
        style="opacity:0.9;fill:#fff9c4;fill-opacity:1"
        cx="43"
        cy="43"
        r="32.025"/>
  </g>
  <path
      style="fill:#942a09;fill-opacity:1;stroke-width:0.66618747"
      d="M 58.748006,59.952809 C 58.748006,60.916777 58.044512,62 57.083869,62 H 29.138637 c -0.960643,0 -1.886644,-1.083223 -1.886644,-2.047191 v -19.29146 c 0,-0.964637 0.925335,-1.838007 1.886644,-1.838007 h 27.945232 c 0.960643,0 1.664137,0.872702 1.664137,1.838007 z"
      inkscape:connector-curvature="0"/>
  <path
      style="opacity:1;fill:#942a09;fill-opacity:1;stroke-width:0.66618747"
      d="m 43,24.17599 c -6.750477,0 -12.181905,5.261545 -12.181905,12.276503 V 39 h 5.348153 v -2.547507 c 0,-5.261546 2.982522,-7.014958 6.833752,-7.014958 3.851896,0 6.834416,1.753412 6.834416,7.014958 V 39 H 55.18257 V 36.452493 C 55.18257,29.437535 49.751812,24.17599 43,24.17599 Z"
      inkscape:connector-curvature="0"/>
  <path
      style="fill:#fff9c4;fill-opacity:1;stroke-width:0.07019094"
      d="m 40.000388,57.117146 c -0.445281,-0.271548 -0.719263,-0.843073 -0.620562,-1.294524 0.02677,-0.122234 0.447171,-1.021863 0.93431,-1.999169 l 0.885738,-1.776932 -0.210577,-0.153224 c -1.208628,-0.879432 -1.79894,-2.220216 -1.581821,-3.592774 0.216544,-1.3689 1.251522,-2.541647 2.594782,-2.940195 0.494296,-0.146654 1.477591,-0.14722 1.974957,-0.001 1.891039,0.555445 3.030821,2.495031 2.555032,4.347943 -0.195178,0.760055 -0.432281,1.149203 -1.095612,1.798222 l -0.621184,0.607772 0.9121,1.838502 c 0.657487,1.32526 0.912109,1.908712 0.912109,2.089969 0,0.396381 -0.250342,0.833562 -0.59198,1.03377 L 45.749943,57.25 h -2.766375 c -2.585524,0 -2.780548,-0.0086 -2.98318,-0.132454 z"
      inkscape:connector-curvature="0"
      sodipodi:nodetypes="ccccccccccccsccscc"/>
</svg>

<?xml version="1.0" encoding="UTF-8" standalone="no"?>
<svg version="1.1" viewBox="0 0 86 86" xmlns="http://www.w3.org/2000/svg">
  <rect style="opacity:0;fill:#ffffff" width="86" height="86"/>
  <linearGradient id="gradient" gradientUnits="userSpaceOnUse" x1="12.8" y1="73.2" x2="73.2" y2="12.8">
    <stop offset="0" style="stop-color:#e65100;stop-opacity:1"/>
    <stop offset="1" style="stop-color:#f57c00;stop-opacity:1"/>
  </linearGradient>
  <circle style="fill:url(#gradient)" cx="43" cy="43" r="42.7"/>
  <circle style="opacity:0.9;fill:#fff9c4" cx="43" cy="43" r="32"/>
  <path style="fill:#942a09" d="M 43 24.176 C 36.25 24.176 30.818 29.438 30.818 36.453 L 30.818 38.824 L 29.139 38.824 C 28.177 38.824 27.252 39.697 27.252 40.662 L 27.252 59.953 C 27.252 60.917 28.178 62 29.139 62 L 57.084 62 C 58.045 62 58.748 60.917 58.748 59.953 L 58.748 40.662 C 58.748 39.697 58.045 38.824 57.084 38.824 L 55.182 38.824 L 55.182 36.453 C 55.182 29.438 49.752 24.176 43 24.176 z M 43 29.438 C 46.852 29.438 49.834 31.192 49.834 36.453 L 49.834 38.824 L 36.166 38.824 L 36.166 36.453 C 36.166 31.192 39.149 29.438 43 29.438 z M 42.988 45.25 C 43.358 45.25 43.728 45.286 43.977 45.359 C 45.868 45.915 47 47.854 46.533 49.707 C 46.338 50.467 46.1 50.857 45.438 51.506 L 44.816 52.113 L 45.729 53.951 C 46.386 55.276 46.641 55.86 46.641 56.041 C 46.641 56.437 46.389 56.876 46.047 57.076 L 45.75 57.25 L 42.984 57.25 C 40.4 57.25 40.203 57.241 40 57.117 C 39.555 56.846 39.28 56.274 39.379 55.822 C 39.406 55.7 39.827 54.802 40.314 53.824 L 41.2 52.047 L 41 51.893 C 39.782 51.014 39.191 49.673 39.408 48.3 C 39.625 46.932 40.659 45.758 42 45.359 C 42.249 45.286 42.619 45.25 42.988 45.25 z"/>
</svg>
